;FLAVOR:Marlin
;TIME:2234
;Filament used: 1.16071m
;Layer height: 0.1
;Generated with Cura_SteamEngine 3.3.0
M190 S60
M104 S200
M109 S200
M82 ;absolute extrusion mode
G21 ;metric values
G90 ;absolute positioning
G92 E0 ;zero the extruded length
M107 ;start with the fan off
G1 X90 Y200 F6000 ;go to the middle of the front
G1 Z0.05 ;close to the bed
G1 Z0.3 ;lift Z

G92 E0
G1 F1500 E-6.5
;LAYER_COUNT:44
;LAYER:0
M107
G0 F3600 X79.597 Y83.086 Z0.3
;TYPE:SKIRT
G1 F1500 E0
G1 F1800 X80.021 Y82.758 E0.02674
G1 X80.489 Y82.496 E0.0535
G1 X80.991 Y82.307 E0.08026
G1 X81.516 Y82.195 E0.10705
G1 X82.007 Y82.161 E0.1316
G1 X122.991 Y82.161 E2.1763
G1 X123.526 Y82.201 E2.20307
G1 X124.049 Y82.32 E2.22983
G1 X124.548 Y82.515 E2.25655
G1 X125.013 Y82.783 E2.28333
G1 X125.433 Y83.116 E2.31007
G1 X125.799 Y83.508 E2.33683
G1 X126.102 Y83.95 E2.36356
G1 X126.337 Y84.433 E2.39036
G1 X126.497 Y84.944 E2.41707
G1 X126.58 Y85.474 E2.44384
G1 X126.591 Y85.761 E2.45817
G1 X126.59 Y97.746 E3.0561
G1 X126.55 Y98.281 E3.08287
G1 X126.493 Y98.577 E3.09791
G1 X125.449 Y102.976 E3.32347
G1 X124.913 Y105.64 E3.45904
G1 X124.464 Y108.279 E3.59259
G1 X123.77 Y113.719 E3.8662
G1 X123.388 Y119.149 E4.13777
G1 X123.311 Y124.61 E4.41025
G1 X123.545 Y130.066 E4.6827
G1 X124.087 Y135.501 E4.9552
G1 X124.553 Y138.735 E5.11821
G1 X124.59 Y139.249 E5.14392
G1 X124.59 Y151.24 E5.74215
G1 X124.55 Y151.775 E5.76892
G1 X124.431 Y152.298 E5.79568
G1 X124.236 Y152.797 E5.8224
G1 X123.968 Y153.262 E5.84918
G1 X123.635 Y153.682 E5.87592
G1 X123.243 Y154.048 E5.90268
G1 X122.801 Y154.351 E5.92941
G1 X122.318 Y154.586 E5.95621
G1 X121.807 Y154.746 E5.98292
G1 X121.277 Y154.829 E6.00969
G1 X120.99 Y154.84 E6.02402
G1 X80.008 Y154.839 E8.06862
G1 X79.473 Y154.799 E8.09538
G1 X78.95 Y154.68 E8.12214
G1 X78.451 Y154.485 E8.14887
G1 X77.986 Y154.217 E8.17565
G1 X77.566 Y153.884 E8.20239
G1 X77.2 Y153.492 E8.22915
G1 X76.897 Y153.05 E8.25588
G1 X76.667 Y152.581 E8.28194
G1 X75.548 Y149.794 E8.43177
G1 X73.296 Y144.821 E8.70413
G1 X71.795 Y141.849 E8.87024
G1 X71.59 Y141.353 E8.89702
G1 X71.461 Y140.833 E8.92375
G1 X71.409 Y140.226 E8.95414
G1 X71.411 Y122.76 E9.82552
G1 X71.458 Y122.178 E9.85466
G1 X72.626 Y115.047 E10.21516
G1 X73.163 Y109.624 E10.48704
G1 X73.314 Y106.94 E10.62116
G1 X73.4 Y102.845 E10.8255
G1 X73.417 Y96.73 E11.13058
G1 X73.458 Y96.195 E11.15735
G1 X73.579 Y95.673 E11.18409
G1 X73.816 Y95.093 E11.21534
G1 X74.663 Y93.447 E11.3077
G1 X77.005 Y88.457 E11.58271
G1 X78.677 Y84.392 E11.802
G1 X78.918 Y83.912 E11.82879
G1 X79.227 Y83.474 E11.85553
G1 X79.597 Y83.086 E11.88228
G0 F3600 X79.93 Y83.326
G1 F1800 X80.34 Y83.03 E11.90751
G1 X80.791 Y82.801 E11.93275
G1 X81.272 Y82.647 E11.95794
G1 X82.007 Y82.561 E11.99486
G1 X122.991 Y82.561 E14.03956
G1 X123.495 Y82.601 E14.06479
G1 X123.986 Y82.72 E14.08999
G1 X124.453 Y82.914 E14.11522
G1 X124.883 Y83.18 E14.14045
G1 X125.266 Y83.51 E14.16567
G1 X125.592 Y83.897 E14.19091
G1 X125.853 Y84.33 E14.21614
G1 X126.043 Y84.798 E14.24134
G1 X126.156 Y85.291 E14.26657
G1 X126.191 Y85.761 E14.29008
G1 X126.19 Y97.746 E14.88802
G1 X126.104 Y98.485 E14.92513
G1 X125.057 Y102.895 E15.15127
G1 X124.521 Y105.56 E15.28689
G1 X124.066 Y108.234 E15.42221
G1 X123.372 Y113.675 E15.69586
G1 X122.988 Y119.133 E15.96884
G1 X122.911 Y124.622 E16.24271
G1 X123.145 Y130.088 E16.51566
G1 X123.69 Y135.551 E16.78956
G1 X124.157 Y138.792 E16.95293
G1 X124.19 Y139.249 E16.97579
G1 X124.19 Y151.24 E17.57402
G1 X124.15 Y151.744 E17.59924
G1 X124.031 Y152.235 E17.62445
G1 X123.837 Y152.702 E17.64968
G1 X123.571 Y153.132 E17.6749
G1 X123.241 Y153.515 E17.70013
G1 X122.854 Y153.841 E17.72537
G1 X122.421 Y154.102 E17.75059
G1 X121.953 Y154.292 E17.77579
G1 X121.46 Y154.405 E17.80103
G1 X120.99 Y154.44 E17.82454
G1 X80.008 Y154.439 E19.86914
G1 X79.504 Y154.399 E19.89436
G1 X79.013 Y154.28 E19.91957
G1 X78.546 Y154.085 E19.94482
G1 X78.116 Y153.82 E19.97002
G1 X77.733 Y153.489 E19.99527
G1 X77.407 Y153.103 E20.02048
G1 X77.146 Y152.67 E20.0457
G1 X77.039 Y152.432 E20.05872
G1 X75.926 Y149.66 E20.20775
G1 X73.642 Y144.616 E20.48399
G1 X72.153 Y141.668 E20.64876
G1 X71.961 Y141.201 E20.67395
G1 X71.846 Y140.708 E20.69921
G1 X71.809 Y140.226 E20.72333
G1 X71.811 Y122.76 E21.59471
G1 X71.853 Y122.243 E21.62059
G1 X73.023 Y115.104 E21.98151
G1 X73.561 Y109.665 E22.25418
G1 X73.714 Y106.942 E22.39025
G1 X73.8 Y102.854 E22.59425
G1 X73.817 Y96.731 E22.89972
G1 X73.858 Y96.227 E22.92495
G1 X73.979 Y95.736 E22.95018
G1 X74.172 Y95.276 E22.97507
G1 X75.018 Y93.632 E23.06731
G1 X77.372 Y88.617 E23.3437
G1 X79.047 Y84.544 E23.56342
G1 X79.276 Y84.093 E23.58865
G1 X79.573 Y83.684 E23.61387
G1 X79.93 Y83.326 E23.63909
G1 F1500 E17.13909
G1 F300 Z1.3
G0 F3600 X82.11 Y96.603 Z1.3
;TYPE:WALL-INNER
G1 F300 Z0.3
G1 F1500 E23.63909
G1 F1800 X82.282 Y96.364 E23.65378
G1 X82.419 Y96.107 E23.66831
G1 X82.52 Y95.831 E23.68298
G1 X82.581 Y95.543 E23.69766
G1 X82.6 Y95.272 E23.71122
G1 X82.6 Y86.351 E24.15629
G1 X122.4 Y86.351 E26.14192
G1 X122.4 Y97.151 E26.68073
G1 X93.416 Y97.152 E28.12675
G1 X93.135 Y97.182 E28.14085
G1 X92.852 Y97.252 E28.15539
G1 X92.578 Y97.363 E28.17014
G1 X92.324 Y97.51 E28.18478
G1 X92.094 Y97.69 E28.19935
G1 X91.891 Y97.9 E28.21393
G1 X91.718 Y98.137 E28.22856
G1 X91.581 Y98.396 E28.24318
G1 X91.48 Y98.672 E28.25785
G1 X91.419 Y98.959 E28.27248
G1 X91.4 Y99.23 E28.28604
G1 X91.4 Y113.641 E29.005
G1 X77.6 Y113.641 E29.69349
G1 X77.6 Y97.351 E30.5062
G1 X80.582 Y97.35 E30.65497
G1 X80.863 Y97.322 E30.66906
G1 X81.15 Y97.25 E30.68382
G1 X81.422 Y97.14 E30.69846
G1 X81.676 Y96.993 E30.7131
G1 X81.906 Y96.813 E30.72767
G1 X82.11 Y96.603 E30.74228
G0 F3600 X82.186 Y96.667
G0 X96.175 Y89.244
G0 X96.718 Y89.065
G0 X96.728 Y89.164
G1 F1800 X96.381 Y89.226 E30.75987
G1 X96.187 Y89.281 E30.76993
G1 X95.868 Y89.409 E30.78708
G1 X95.7 Y89.5 E30.79661
G1 X95.547 Y89.595 E30.80559
G1 X95.391 Y89.708 E30.8152
G1 X95.13 Y89.943 E30.83272
G1 X94.894 Y90.225 E30.85107
G1 X94.709 Y90.521 E30.86848
G1 X94.624 Y90.694 E30.8781
G1 X94.557 Y90.861 E30.88708
G1 X94.5 Y91.035 E30.89621
G1 X94.456 Y91.213 E30.90536
G1 X94.426 Y91.389 E30.91427
G1 X94.406 Y91.569 E30.9233
G1 X94.4 Y91.752 E30.93244
G1 X94.407 Y91.944 E30.94202
G1 X94.454 Y92.28 E30.95895
G1 X94.502 Y92.478 E30.96911
G1 X94.624 Y92.811 E30.98681
G1 X94.788 Y93.12 E31.00426
G1 X94.9 Y93.286 E31.01425
G1 X95.125 Y93.554 E31.03171
G1 X95.263 Y93.686 E31.04124
G1 X95.408 Y93.807 E31.05066
G1 X95.688 Y93.997 E31.06754
G1 X95.859 Y94.088 E31.0772
G1 X96.036 Y94.167 E31.08687
G1 X96.361 Y94.272 E31.10391
G1 X96.55 Y94.312 E31.11355
G1 X96.728 Y94.337 E31.12252
G1 X96.909 Y94.35 E31.13157
G1 X97.101 Y94.35 E31.14115
G1 X97.441 Y94.315 E31.1582
G1 X97.64 Y94.272 E31.16836
G1 X97.964 Y94.167 E31.18535
G1 X98.141 Y94.088 E31.19502
G1 X98.302 Y94.002 E31.20413
G1 X98.463 Y93.901 E31.21361
G1 X98.731 Y93.692 E31.23057
G1 X98.875 Y93.554 E31.24052
G1 X99.1 Y93.286 E31.25798
G1 X99.205 Y93.129 E31.2674
G1 X99.296 Y92.972 E31.27645
G1 X99.376 Y92.808 E31.28556
G1 X99.443 Y92.641 E31.29453
G1 X99.5 Y92.469 E31.30357
G1 X99.544 Y92.29 E31.31277
G1 X99.574 Y92.114 E31.32168
G1 X99.594 Y91.934 E31.33071
G1 X99.6 Y91.75 E31.3399
G1 X99.593 Y91.559 E31.34943
G1 X99.546 Y91.223 E31.36636
G1 X99.498 Y91.025 E31.37652
G1 X99.38 Y90.703 E31.39363
G1 X99.292 Y90.521 E31.40372
G1 X99.11 Y90.23 E31.42084
G1 X98.992 Y90.081 E31.43032
G1 X98.872 Y89.946 E31.43934
G1 X98.74 Y89.819 E31.44847
G1 X98.593 Y89.695 E31.45807
G1 X98.309 Y89.503 E31.47517
G1 X98.139 Y89.414 E31.48475
G1 X97.974 Y89.341 E31.49375
G1 X97.804 Y89.278 E31.50279
G1 X97.628 Y89.229 E31.51191
G1 X97.452 Y89.191 E31.52089
G1 X97.271 Y89.165 E31.53001
G1 X97.079 Y89.153 E31.53961
G1 X96.728 Y89.164 E31.55713
G0 F3600 X96.718 Y89.065
G0 X116.718 Y89.065
G0 X116.728 Y89.164
G1 F1800 X116.381 Y89.226 E31.57472
G1 X116.187 Y89.281 E31.58478
G1 X115.868 Y89.409 E31.60193
G1 X115.7 Y89.5 E31.61146
G1 X115.547 Y89.595 E31.62044
G1 X115.391 Y89.708 E31.63005
G1 X115.13 Y89.943 E31.64757
G1 X114.894 Y90.225 E31.66592
G1 X114.709 Y90.521 E31.68333
G1 X114.624 Y90.694 E31.69295
G1 X114.557 Y90.861 E31.70193
G1 X114.5 Y91.035 E31.71106
G1 X114.456 Y91.213 E31.72021
G1 X114.426 Y91.389 E31.72912
G1 X114.406 Y91.569 E31.73815
G1 X114.4 Y91.752 E31.74729
G1 X114.407 Y91.944 E31.75687
G1 X114.454 Y92.28 E31.7738
G1 X114.502 Y92.478 E31.78396
G1 X114.624 Y92.811 E31.80166
G1 X114.788 Y93.12 E31.81911
G1 X114.9 Y93.286 E31.8291
G1 X115.125 Y93.554 E31.84656
G1 X115.263 Y93.686 E31.85609
G1 X115.408 Y93.807 E31.86551
G1 X115.688 Y93.997 E31.88239
G1 X115.859 Y94.088 E31.89205
G1 X116.036 Y94.167 E31.90172
G1 X116.361 Y94.272 E31.91876
G1 X116.55 Y94.312 E31.9284
G1 X116.728 Y94.337 E31.93737
G1 X116.909 Y94.35 E31.94642
G1 X117.101 Y94.35 E31.956
G1 X117.441 Y94.315 E31.97305
G1 X117.64 Y94.272 E31.98321
G1 X117.964 Y94.167 E32.0002
G1 X118.141 Y94.088 E32.00987
G1 X118.302 Y94.002 E32.01898
G1 X118.463 Y93.901 E32.02846
G1 X118.731 Y93.692 E32.04542
G1 X118.875 Y93.554 E32.05537
G1 X119.1 Y93.286 E32.07283
G1 X119.205 Y93.129 E32.08225
G1 X119.296 Y92.972 E32.0913
G1 X119.376 Y92.808 E32.10041
G1 X119.443 Y92.641 E32.10938
G1 X119.5 Y92.469 E32.11842
G1 X119.544 Y92.29 E32.12762
G1 X119.574 Y92.114 E32.13653
G1 X119.594 Y91.934 E32.14556
G1 X119.6 Y91.75 E32.15475
G1 X119.593 Y91.559 E32.16428
G1 X119.546 Y91.223 E32.18121
G1 X119.498 Y91.025 E32.19137
G1 X119.38 Y90.703 E32.20848
G1 X119.292 Y90.521 E32.21857
G1 X119.11 Y90.23 E32.23569
G1 X118.992 Y90.081 E32.24517
G1 X118.872 Y89.946 E32.25419
G1 X118.74 Y89.819 E32.26332
G1 X118.593 Y89.695 E32.27292
G1 X118.309 Y89.503 E32.29002
G1 X118.139 Y89.414 E32.2996
G1 X117.974 Y89.341 E32.3086
G1 X117.804 Y89.278 E32.31764
G1 X117.628 Y89.229 E32.32676
G1 X117.452 Y89.191 E32.33574
G1 X117.271 Y89.165 E32.34486
G1 X117.079 Y89.153 E32.35446
G1 X116.728 Y89.164 E32.37198
G0 F3600 X116.77 Y89.563
;TYPE:WALL-OUTER
G1 F1800 X116.471 Y89.616 E32.38713
G1 X116.317 Y89.66 E32.39512
G1 X116.038 Y89.772 E32.41012
G1 X115.9 Y89.846 E32.41793
G1 X115.77 Y89.927 E32.42557
G1 X115.643 Y90.019 E32.4334
G1 X115.419 Y90.221 E32.44845
G1 X115.218 Y90.461 E32.46406
G1 X115.059 Y90.715 E32.47901
G1 X114.99 Y90.857 E32.48689
G1 X114.933 Y90.998 E32.49448
G1 X114.885 Y91.145 E32.50219
G1 X114.848 Y91.295 E32.5099
G1 X114.822 Y91.445 E32.5175
G1 X114.805 Y91.598 E32.52518
G1 X114.8 Y91.751 E32.53281
G1 X114.806 Y91.909 E32.5407
G1 X114.847 Y92.205 E32.55561
G1 X114.885 Y92.361 E32.56362
G1 X114.99 Y92.647 E32.57882
G1 X115.132 Y92.914 E32.59391
G1 X115.22 Y93.045 E32.60178
G1 X115.417 Y93.28 E32.61708
G1 X115.529 Y93.387 E32.62481
G1 X115.649 Y93.487 E32.6326
G1 X115.896 Y93.654 E32.64748
G1 X116.035 Y93.729 E32.65536
G1 X116.179 Y93.793 E32.66322
G1 X116.464 Y93.885 E32.67816
G1 X116.619 Y93.918 E32.68606
G1 X116.77 Y93.939 E32.69367
G1 X116.923 Y93.95 E32.70132
G1 X117.08 Y93.95 E32.70916
G1 X117.378 Y93.919 E32.7241
G1 X117.536 Y93.885 E32.73217
G1 X117.821 Y93.793 E32.74711
G1 X117.965 Y93.729 E32.75497
G1 X118.101 Y93.656 E32.76267
G1 X118.233 Y93.573 E32.77045
G1 X118.469 Y93.389 E32.78538
G1 X118.583 Y93.28 E32.79325
G1 X118.78 Y93.045 E32.80855
G1 X118.866 Y92.917 E32.81624
G1 X118.943 Y92.784 E32.82391
G1 X119.01 Y92.646 E32.83156
G1 X119.067 Y92.504 E32.8392
G1 X119.115 Y92.358 E32.84686
G1 X119.152 Y92.208 E32.85457
G1 X119.178 Y92.058 E32.86217
G1 X119.195 Y91.905 E32.86985
G1 X119.2 Y91.751 E32.87753
G1 X119.194 Y91.594 E32.88537
G1 X119.153 Y91.298 E32.90028
G1 X119.115 Y91.142 E32.90829
G1 X119.011 Y90.86 E32.92329
G1 X118.941 Y90.715 E32.93132
G1 X118.782 Y90.461 E32.94627
G1 X118.685 Y90.338 E32.95408
G1 X118.583 Y90.223 E32.96175
G1 X118.472 Y90.116 E32.96944
G1 X118.352 Y90.015 E32.97727
G1 X118.103 Y89.847 E32.99226
G1 X117.965 Y89.774 E33.00004
G1 X117.824 Y89.712 E33.00773
G1 X117.68 Y89.659 E33.01538
G1 X117.532 Y89.617 E33.02306
G1 X117.382 Y89.585 E33.03071
G1 X117.23 Y89.563 E33.03837
G1 X117.073 Y89.553 E33.04622
G1 X116.77 Y89.563 E33.06135
G0 F3600 X116.573 Y89.597
G0 X116.486 Y89.106
G0 X96.755 Y89.063
G0 X96.77 Y89.563
G1 F1800 X96.471 Y89.616 E33.0765
G1 X96.317 Y89.66 E33.08449
G1 X96.038 Y89.772 E33.09949
G1 X95.9 Y89.846 E33.1073
G1 X95.77 Y89.927 E33.11494
G1 X95.643 Y90.019 E33.12276
G1 X95.419 Y90.221 E33.13781
G1 X95.218 Y90.461 E33.15343
G1 X95.059 Y90.715 E33.16838
G1 X94.99 Y90.857 E33.17626
G1 X94.933 Y90.998 E33.18385
G1 X94.885 Y91.145 E33.19156
G1 X94.848 Y91.295 E33.19927
G1 X94.822 Y91.445 E33.20686
G1 X94.805 Y91.598 E33.21454
G1 X94.8 Y91.751 E33.22218
G1 X94.806 Y91.909 E33.23007
G1 X94.847 Y92.205 E33.24498
G1 X94.885 Y92.361 E33.25299
G1 X94.99 Y92.647 E33.26819
G1 X95.132 Y92.914 E33.28328
G1 X95.22 Y93.045 E33.29115
G1 X95.417 Y93.28 E33.30645
G1 X95.529 Y93.387 E33.31418
G1 X95.649 Y93.487 E33.32197
G1 X95.896 Y93.654 E33.33684
G1 X96.035 Y93.729 E33.34472
G1 X96.179 Y93.793 E33.35259
G1 X96.464 Y93.885 E33.36753
G1 X96.619 Y93.918 E33.37543
G1 X96.77 Y93.939 E33.38304
G1 X96.923 Y93.95 E33.39069
G1 X97.08 Y93.95 E33.39852
G1 X97.378 Y93.919 E33.41347
G1 X97.536 Y93.885 E33.42153
G1 X97.821 Y93.793 E33.43648
G1 X97.965 Y93.729 E33.44434
G1 X98.101 Y93.656 E33.45204
G1 X98.233 Y93.573 E33.45982
G1 X98.469 Y93.389 E33.47475
G1 X98.583 Y93.28 E33.48262
G1 X98.78 Y93.045 E33.49792
G1 X98.866 Y92.917 E33.50561
G1 X98.943 Y92.784 E33.51328
G1 X99.01 Y92.646 E33.52093
G1 X99.067 Y92.504 E33.52856
G1 X99.115 Y92.358 E33.53623
G1 X99.152 Y92.208 E33.54394
G1 X99.178 Y92.058 E33.55153
G1 X99.195 Y91.905 E33.55921
G1 X99.2 Y91.751 E33.5669
G1 X99.194 Y91.594 E33.57474
G1 X99.153 Y91.298 E33.58965
G1 X99.115 Y91.142 E33.59766
G1 X99.011 Y90.86 E33.61265
G1 X98.941 Y90.715 E33.62069
G1 X98.782 Y90.461 E33.63564
G1 X98.685 Y90.338 E33.64345
G1 X98.583 Y90.223 E33.65112
G1 X98.472 Y90.116 E33.65881
G1 X98.352 Y90.015 E33.66664
G1 X98.103 Y89.847 E33.68162
G1 X97.965 Y89.774 E33.68941
G1 X97.824 Y89.712 E33.6971
G1 X97.68 Y89.659 E33.70475
G1 X97.532 Y89.617 E33.71243
G1 X97.382 Y89.585 E33.72008
G1 X97.23 Y89.563 E33.72774
G1 X97.073 Y89.553 E33.73559
G1 X96.77 Y89.563 E33.75072
G0 F3600 X96.573 Y89.597
G0 X96.486 Y89.106
G0 X95.943 Y89.364
G0 X82.208 Y96.637
G0 X81.803 Y96.345
G1 F1800 X81.942 Y96.152 E33.76258
G1 X82.053 Y95.943 E33.77439
G1 X82.135 Y95.72 E33.78624
G1 X82.184 Y95.488 E33.79807
G1 X82.2 Y95.258 E33.80957
G1 X82.2 Y85.951 E34.2739
G1 X122.8 Y85.951 E36.29944
G1 X122.8 Y97.551 E36.87817
G1 X93.437 Y97.552 E38.3431
G1 X93.205 Y97.577 E38.35474
G1 X92.975 Y97.634 E38.36656
G1 X92.754 Y97.723 E38.37845
G1 X92.549 Y97.842 E38.39027
G1 X92.362 Y97.988 E38.40211
G1 X92.198 Y98.158 E38.41389
G1 X92.058 Y98.35 E38.42575
G1 X91.947 Y98.559 E38.43755
G1 X91.865 Y98.783 E38.44946
G1 X91.816 Y99.015 E38.46128
G1 X91.8 Y99.244 E38.47274
G1 X91.8 Y114.041 E39.21096
G1 X77.2 Y114.041 E39.93936
G1 X77.2 Y96.951 E40.79198
G1 X80.562 Y96.95 E40.95971
G1 X80.794 Y96.927 E40.97135
G1 X81.026 Y96.869 E40.98328
G1 X81.246 Y96.78 E40.99512
G1 X81.451 Y96.661 E41.00694
G1 X81.638 Y96.515 E41.01878
G1 X81.803 Y96.345 E41.0306
G0 F3600 X81.92 Y96.183
G0 X82.614 Y96.571
;TYPE:SKIN
G1 F1800 X82.776 Y96.267 E41.04778
G1 X82.896 Y95.939 E41.06521
G1 X82.969 Y95.597 E41.08265
G1 X82.99 Y95.285 E41.09826
G1 X82.99 Y86.741 E41.52452
G1 X122.01 Y86.741 E43.47123
G1 X122.01 Y96.761 E43.97113
G1 X93.395 Y96.762 E45.39874
G1 X93.067 Y96.797 E45.4152
G1 X92.731 Y96.88 E45.43247
G1 X92.406 Y97.012 E45.44997
G1 X92.105 Y97.186 E45.46731
G1 X91.833 Y97.399 E45.48455
G1 X91.592 Y97.648 E45.50184
G1 X91.386 Y97.93 E45.51926
G1 X91.224 Y98.238 E45.53662
G1 X91.104 Y98.564 E45.55395
G1 X91.031 Y98.905 E45.57135
G1 X91.01 Y99.217 E45.58695
G1 X91.01 Y113.251 E46.28711
G1 X77.99 Y113.251 E46.93668
G1 X77.99 Y97.741 E47.71048
G1 X80.601 Y97.74 E47.84074
G1 X80.93 Y97.708 E47.85723
G1 X81.271 Y97.622 E47.87478
G1 X81.594 Y97.491 E47.89217
G1 X81.895 Y97.317 E47.90951
G1 X82.167 Y97.104 E47.92675
G1 X82.41 Y96.854 E47.94414
G1 X82.614 Y96.571 E47.96155
G0 F3600 X94.128 Y92.591
G1 F1800 X94.267 Y92.971 E47.98173
